X:279
T:Michaelmas Eve. (p)1687.PLFD.279
M:6/4
L:1/4
Q:3/4=80
S:Playford, Dancing Master,7th Ed,1st Supp,1687.
O:England
H:1687.
Z:Chris Partington
K:Bb
gababg|gfdB2f|f>gfG>AB|AF2FBF|
F>EDE2e|d>cde2f|gGABB>A|1B3B,3:|2B3B,2|
|:B|A>BcG>AB|AF2Ffd|gdec>dc/B/|Gc2c>BA|
B2GF>ED|E2GcGB|A>edc>Bc|1dB2-B2:|2dB2-B3|]
